X: 1
T:Balancy Straw, Ascott
M:4/4
L:1/8
A:Ascott
P:A(AB)5
K:G
P:A
|:G2B2 (3BcB AB|c2A2 A2Bc|d2ed c2Ac|A2G2 G4:|
P:B
|:d2c2   c2G2  |B2B2 B4  |d2c2 c2G2|B2A2 G4 |
  G2B2   B2Bd  |c2A2 A2B2|c2ee d2c2|B2G2 G4:|
